
		startshape tendris
		CF::Background = [hue 120 sat 1 b -0.5]
		CF::MinimumSize = 0.1
		shape tendris
rule 1{
arm [h 348.16 sat 0.7039 b 1.0]
CIRCLE [s 0.9 b 1]
arm [y 0.2 s 0.9999 r 3] 
 } 

shape arm
rule 98{
CIRCLE []
CIRCLE [s 0.9 b 1]
arm [y 0.2 s 0.9999 r 3] 
 } 

rule 2{
CIRCLE []
CIRCLE [s 0.9 b 1]
arm [y 0.2 s 0.99 f 90]
arm [y 0.2 s 0.6 b 0.2] 
 } 

		