
		startshape tendris
		CF::MinimumSize = 0.1
		shape tendris
rule 1{
CIRCLE [] 
 } 

rule 1{
CIRCLE []
CIRCLE [s 0.9 b 1]
arm [y 0.198 s 0.6 b 0.2] 
 } 

shape arm
rule 98{
CIRCLE []
CIRCLE [s 0.9 b 1]
arm [y 0.2 s 0.99 r 3] 
 } 

rule 2{
CIRCLE []
CIRCLE [s 0.9 b 1]
arm [y 0.2 s 0.99 f 90.9]
arm [y 0.198 s 0.6 b 0.2] 
 } 

		