startshape blah
CF::Background = [hue 199 sat 1 b -0.435 ]
CF::MinimumSize =  0.186
shape blah {
blah2 [alpha -1]
blah2 [ flip 65 alpha -1 x 5 b 1]
blah2 [alpha - 2 y -5 b 1]
blah2 [flip 90 alpha -1 x 5 y -5]
}
shape blah2 {
TRIANGLE []
blah2 [alpha 0.0001 r  93.18 ..10 x 1 s  0.9992 ]
}
