startshape blah
CF::Background = [hue -5000 sat 1 b -0.305 ]
CF::MinimumSize =  0.012
shape blah {
blah2 [alpha -1]
blah2 [ flip 52 alpha -1 x 5 b 1]
blah2 [alpha - 9 y -5 b 1]
blah2 [flip 50 alpha -1 x 5 y -5]
}
shape blah2 {
 SQUARE []
blah2 [alpha 0.0001 r  13.17 ..10 x 1 s  0.9991 ]
}
