startshape blah
CF::Background = [hue -4269 sat 1 b -0.161 ]
CF::MinimumSize =  0.236
shape blah {
blah2 [alpha -1]
blah2 [ flip 66 alpha -1 x 5 b 1]
blah2 [alpha - 3 y -5 b 1]
blah2 [flip  66 alpha -1 x 5 y -5]
}
shape blah2 {
 CIRCLE []
blah2 [alpha 0.01 r  11.52 ..10 x 1 s 0.995 ]
}
