startshape blah
CF::Background = [hue 1064 sat 1 b -0.485 ]
CF::MinimumSize =  0.13
shape blah {
blah2 [alpha -1]
blah2 [ flip 291 alpha -1 x 5 b 1]
blah2 [alpha - 3 y -5 b 1]
blah2 [flip  291 alpha -1 x 5 y -5]
}
shape blah2 {
 CIRCLE []
blah2 [alpha 0.02  r  34.92 ..10 x 1 s 0.995 ]
}
