startshape blah
CF::Background = [hue -442 sat 1 b -0.348 ]
CF::MinimumSize =  0.299
shape blah {
blah2 [alpha -1]
blah2 [ flip 291 alpha -1 x 5 b 1]
blah2 [alpha - 6 y -5 b 1]
blah2 [flip  291 alpha -1 x 5 y -5]
}
shape blah2 {
 TRIANGLE []
blah2 [alpha 0.03  r  18.39 ..10 x 1 s 0.95 ]
}
