startshape blah
CF::Background = [hue -777 sat 1 b -0.068 ]
CF::MinimumSize =  0.087
shape blah {
blah2 [alpha -1]
blah2 [ flip 190 alpha -1 x 5 b 1]
blah2 [alpha - 5 y -5 b 1]
blah2 [flip  190 alpha -1 x 5 y -5]
}
shape blah2 {
 SQUARE []
blah2 [alpha 0.02  r  2.07 ..10 x 1 s 0.9995 ]
}
