
		startshape nt5
		CF::Background = [hue 120 sat 1 b -0.5]
		CF::MinimumSize = 0.1
		shape nt5
rule 1{
SQUARE [trans -3 -3]
SQUARE [trans 3 3]
SQUARE [trans 3 -3]
SQUARE [trans -3 3] 
 } 

rule 1{
SQUARE [trans -3 -3]
SQUARE [trans 3 3]
SQUARE [trans 3 -3]
SQUARE [trans -3 3] 
 } 

		