
		startshape tendris
		CF::MinimumSize = 0.1
		shape tendris
rule 2{
CIRCLE []
arm [y 0.2 s 0.99 f 90]
arm [y 0.2 s 0.99 r 3]
arm [y 0.2 s 0.99 r 3] 
 } 

rule 98{
CIRCLE []
CIRCLE [s 0.9 b 1]
arm [y 0.2 s 0.99 f 90]
arm [y 0.2 s 0.99 f 90] 
 } 

rule 2{
CIRCLE []
CIRCLE [s 0.9 b 1]
CIRCLE [s 0.9 b 1]
arm [y 0.2 s 0.99 f 90] 
 } 

rule 2{
CIRCLE []
CIRCLE [s 0.9 b 1]
arm [y 0.2 s 0.99 f 90]
arm [y 0.2 s 0.6 b 0.2] 
 } 

rule 2{
CIRCLE []
arm [y 0.2 s 0.99 f 90]
arm [y 0.2 s 0.99 f 90]
arm [y 0.2 s 0.6 b 0.2] 
 } 

rule 98{
CIRCLE []
CIRCLE [s 0.9 b 1]
arm [y 0.2 s 0.99 f 90] 
 } 

rule 98{
CIRCLE []
CIRCLE [s 0.9 b 1]
arm [y 0.2 s 0.99 f 90]
arm [y 0.2 s 0.6 b 0.2] 
 } 

rule 2{
CIRCLE []
CIRCLE [s 0.9 b 1]
arm [y 0.2 s 0.99 r 3] 
 } 

rule 98{
CIRCLE []
CIRCLE [s 0.9 b 1]
arm [y 0.2 s 0.6 b 0.2]
arm [y 0.2 s 0.99 r 3] 
 } 

rule 2{
CIRCLE []
CIRCLE [s 0.9 b 1]
arm [y 0.2 s 0.99 r 3]
arm [y 0.2 s 0.6 b 0.2] 
 } 

rule 98{
CIRCLE []
CIRCLE [s 0.9 b 1]
arm [y 0.2 s 0.99 f 90]
arm [y 0.2 s 0.6 b 0.2] 
 } 

rule 98{
CIRCLE []
CIRCLE [s 0.9 b 1]
arm [y 0.2 s 0.99 f 90]
arm [y 0.2 s 0.6 b 0.2]
arm [y 0.2 s 0.99 r 3] 
 } 

rule 2{
CIRCLE []
CIRCLE [s 0.9 b 1]
arm [y 0.2 s 0.99 f 90]
arm [y 0.2 s 0.6 b 0.2] 
 } 

rule 2{
CIRCLE []
CIRCLE [s 0.9 b 1]
arm [y 0.2 s 0.99 f 90]
arm [y 0.2 s 0.6 b 0.2] 
 } 

rule 2{
CIRCLE []
arm [y 0.2 s 0.99 r 3]
arm [y 0.2 s 0.6 b 0.2] 
 } 

rule 98{
CIRCLE []
CIRCLE [s 0.9 b 1]
arm [y 0.2 s 0.99 f 90]
arm [y 0.2 s 0.99 f 90] 
 } 

rule 2{
CIRCLE []
CIRCLE [s 0.9 b 1]
arm [y 0.2 s 0.99 f 90]
arm [y 0.2 s 0.6 b 0.2] 
 } 

rule 98{
CIRCLE []
CIRCLE [s 0.9 b 1]
arm [y 0.2 s 0.99 f 90] 
 } 

rule 98{
CIRCLE []
arm [y 0.2 s 0.99 r 3]
arm [y 0.2 s 0.99 f 90] 
 } 

rule 98{
CIRCLE []
CIRCLE [s 0.9 b 1]
arm [y 0.2 s 0.99 f 90]
arm [y 0.2 s 0.6 b 0.2] 
 } 

rule 2{
CIRCLE []
CIRCLE [s 0.9 b 1]
arm [y 0.2 s 0.99 r 3] 
 } 

rule 2{
CIRCLE []
CIRCLE [s 0.9 b 1]
arm [y 0.2 s 0.99 f 90]
arm [y 0.2 s 0.6 b 0.2] 
 } 

rule 98{
CIRCLE []
arm [y 0.2 s 0.99 f 90]
arm [y 0.2 s 0.99 r 3]
CIRCLE [s 0.9 b 1] 
 } 

rule 2{
CIRCLE []
arm [y 0.2 s 0.99 f 90]
arm [y 0.2 s 0.6 b 0.2] 
 } 

rule 2{
CIRCLE []
CIRCLE [s 0.9 b 1]
arm [y 0.2 s 0.99 f 90]
arm [y 0.2 s 0.6 b 0.2] 
 } 

rule 2{
CIRCLE []
CIRCLE [s 0.9 b 1]
arm [y 0.2 s 0.99 f 90]
arm [y 0.2 s 0.6 b 0.2] 
 } 

rule 2{
CIRCLE []
arm [y 0.2 s 0.99 f 90]
arm [y 0.2 s 0.99 r 3]
arm [y 0.2 s 0.6 b 0.2] 
 } 

rule 98{
CIRCLE []
CIRCLE [s 0.9 b 1]
arm [y 0.2 s 0.99 f 90]
CIRCLE [s 0.9 b 1] 
 } 

rule 2{
CIRCLE []
CIRCLE [s 0.9 b 1]
arm [y 0.2 s 0.6 b 0.2]
arm [y 0.2 s 0.6 b 0.2] 
 } 

rule 98{
CIRCLE []
CIRCLE [s 0.9 b 1]
arm [y 0.2 s 0.99 f 90] 
 } 

rule 98{
CIRCLE []
CIRCLE [s 0.9 b 1]
arm [y 0.2 s 0.6 b 0.2]
arm [y 0.2 s 0.6 b 0.2] 
 } 

rule 98{
CIRCLE []
CIRCLE [s 0.9 b 1]
arm [y 0.2 s 0.99 r 3] 
 } 

rule 98{
CIRCLE []
CIRCLE [s 0.9 b 1]
arm [y 0.2 s 0.99 f 90]
arm [y 0.2 s 0.6 b 0.2] 
 } 

rule 2{
CIRCLE []
CIRCLE [s 0.9 b 1]
arm [y 0.2 s 0.99 f 90]
arm [y 0.2 s 0.6 b 0.2] 
 } 

rule 98{
CIRCLE []
CIRCLE [s 0.9 b 1] 
 } 

rule 2{
CIRCLE []
CIRCLE [s 0.9 b 1]
arm [y 0.2 s 0.99 f 90] 
 } 

rule 2{
CIRCLE []
CIRCLE [s 0.9 b 1]
arm [y 0.2 s 0.99 r 3]
arm [y 0.2 s 0.6 b 0.2] 
 } 

rule 98{
CIRCLE []
arm [y 0.2 s 0.99 f 90]
CIRCLE [s 0.9 b 1]
arm [y 0.2 s 0.99 f 90] 
 } 

rule 98{
CIRCLE []
CIRCLE [s 0.9 b 1]
arm [y 0.2 s 0.99 f 90] 
 } 

rule 2{
CIRCLE []
CIRCLE [s 0.9 b 1]
arm [y 0.2 s 0.99 f 90]
arm [y 0.2 s 0.6 b 0.2] 
 } 

rule 98{
CIRCLE []
CIRCLE [s 0.9 b 1]
arm [y 0.2 s 0.99 f 90] 
 } 

rule 2{
CIRCLE []
arm [y 0.2 s 0.99 f 90]
arm [y 0.2 s 0.99 f 90]
arm [y 0.2 s 0.6 b 0.2] 
 } 

rule 98{
CIRCLE []
CIRCLE [s 0.9 b 1]
arm [y 0.2 s 0.99 f 90]
arm [y 0.2 s 0.6 b 0.2] 
 } 

rule 2{
CIRCLE []
CIRCLE [s 0.9 b 1]
arm [y 0.2 s 0.99 f 90]
arm [y 0.2 s 0.6 b 0.2] 
 } 

rule 2{
CIRCLE []
CIRCLE [s 0.9 b 1]
arm [y 0.2 s 0.99 r 3]
arm [y 0.2 s 0.6 b 0.2] 
 } 

rule 2{
CIRCLE []
CIRCLE [s 0.9 b 1]
arm [y 0.2 s 0.99 f 90]
arm [y 0.2 s 0.6 b 0.2] 
 } 

rule 2{
CIRCLE []
CIRCLE [s 0.9 b 1]
arm [y 0.2 s 0.6 b 0.2]
arm [y 0.2 s 0.99 r 3] 
 } 

rule 98{
CIRCLE []
CIRCLE [s 0.9 b 1]
arm [y 0.2 s 0.99 r 3] 
 } 

rule 2{
CIRCLE []
CIRCLE [s 0.9 b 1]
arm [y 0.2 s 0.99 f 90]
arm [y 0.2 s 0.6 b 0.2] 
 } 

shape arm
rule 98{
CIRCLE []
CIRCLE [s 0.9 b 1]
arm [y 0.2 s 0.99 r 3] 
 } 

rule 2{
CIRCLE []
CIRCLE [s 0.9 b 1]
arm [y 0.2 s 0.99 f 90]
arm [y 0.2 s 0.6 b 0.2] 
 } 

		