
		startshape tendris
		CF::MinimumSize = 0.1
		shape tendris
rule 1{
cord []
CIRCLE [s 0.9 b 1] 
 } 

rule 1{
cord []
sun [x 1.01 r 60 h 3 sat -0.19 s 0.999 b 0.09999000000000001] 
 } 

shape cord
rule 1{
CIRCLE [sat 1 h 270]
cord [y 0.99 r 60.1 s 0.98] 
 } 

shape sun
rule 1{
cord []
sun [x 1.01 r 60 h 3 sat -0.19 s 0.999 b 0.09999000000000001] 
 } 

		