
		startshape tendris
		CF::MinimumSize = 0.1
		shape tendris
rule 1{
CIRCLE [sat 1 h 270]
cord [y 1 r 60.1 s 0.98] 
 } 

rule 1{
CIRCLE [sat 1 h 270]
cord [y 1 r 60.1 s 0.98] 
 } 

rule 1{
CIRCLE [sat 1 h 270]
cord [y 1 r 60.1 s 0.98] 
 } 

rule 1{
CIRCLE [sat 1 h 270]
cord [y 1 r 60.1 s 0.98] 
 } 

rule 1{
CIRCLE [sat 1 h 270]
cord [y 1 r 60.1 s 0.98] 
 } 

rule 1{
CIRCLE [sat 1 h 270]
cord [y 1 r 60.1 s 0.98] 
 } 

rule 1{
CIRCLE [sat 1 h 270]
cord [y 1 r 60.1 s 0.98] 
 } 

rule 1{
CIRCLE [sat 1 h 270]
cord [y 1 r 60.1 s 0.98] 
 } 

rule 1{
CIRCLE [sat 1 h 270]
cord [y 1 r 60.1 s 0.98] 
 } 

rule 1{
CIRCLE [sat 1 h 270]
cord [y 1 r 60.1 s 0.98] 
 } 

rule 1{
CIRCLE [sat 1 h 270]
cord [y 1 r 60.1 s 0.98] 
 } 

rule 1{
CIRCLE [sat 1 h 270]
cord [y 1 r 60.1 s 0.98] 
 } 

rule 1{
CIRCLE [sat 1 h 270]
cord [y 1 r 60.1 s 0.98] 
 } 

rule 1{
CIRCLE [sat 1 h 270]
cord [y 1 r 60.1 s 0.98] 
 } 

rule 1{
CIRCLE [sat 1 h 270]
cord [y 1 r 60.1 s 0.98] 
 } 

rule 1{
CIRCLE [sat 1 h 270]
cord [y 1 r 60.1 s 0.98] 
 } 

rule 1{
CIRCLE [sat 1 h 270]
cord [y 1 r 60.1 s 0.98] 
 } 

rule 1{
CIRCLE [sat 1 h 270]
cord [y 1 r 60.1 s 0.98] 
 } 

rule 1{
CIRCLE [sat 1 h 270]
cord [y 1 r 60.1 s 0.98] 
 } 

rule 1{
CIRCLE [sat 1 h 270]
cord [y 1 r 60.1 s 0.98] 
 } 

rule 1{
CIRCLE [sat 1 h 270]
cord [y 1 r 60.1 s 0.98] 
 } 

rule 1{
CIRCLE [sat 1 h 270]
cord [y 1 r 60.1 s 0.98] 
 } 

rule 1{
CIRCLE [sat 1 h 270]
cord [y 1 r 60.1 s 0.98] 
 } 

rule 1{
CIRCLE [sat 1 h 270]
cord [y 1 r 60.1 s 0.98] 
 } 

rule 1{
CIRCLE [sat 1 h 270]
cord [y 1 r 60.1 s 0.98] 
 } 

rule 1{
CIRCLE [sat 1 h 270]
cord [y 1 r 60.1 s 0.98] 
 } 

rule 1{
CIRCLE [sat 1 h 270]
cord [y 1 r 60.1 s 0.98] 
 } 

rule 1{
CIRCLE [sat 1 h 270]
cord [y 1 r 60.1 s 0.98] 
 } 

rule 1{
CIRCLE [sat 1 h 270]
cord [y 1 r 60.1 s 0.98] 
 } 

rule 1{
CIRCLE [sat 1 h 270]
cord [y 1 r 60.1 s 0.98] 
 } 

rule 1{
CIRCLE [sat 1 h 270]
cord [y 1 r 60.1 s 0.98] 
 } 

rule 1{
CIRCLE [sat 1 h 270]
cord [y 1 r 60.1 s 0.98] 
 } 

rule 1{
CIRCLE [sat 1 h 270]
cord [y 1 r 60.1 s 0.98] 
 } 

rule 1{
CIRCLE [sat 1 h 270]
cord [y 1 r 60.1 s 0.98] 
 } 

rule 1{
CIRCLE [sat 1 h 270]
cord [y 1 r 60.1 s 0.98] 
 } 

rule 1{
CIRCLE [sat 1 h 270]
cord [y 1 r 60.1 s 0.98] 
 } 

rule 1{
CIRCLE [sat 1 h 270]
cord [y 1 r 60.1 s 0.98] 
 } 

rule 1{
CIRCLE [sat 1 h 270]
cord [y 1 r 60.1 s 0.98] 
 } 

rule 1{
CIRCLE [sat 1 h 270]
cord [y 1 r 60.1 s 0.98] 
 } 

rule 1{
CIRCLE [sat 1 h 270]
cord [y 1 r 60.1 s 0.98] 
 } 

rule 1{
CIRCLE [sat 1 h 270]
cord [y 1 r 60.1 s 0.98] 
 } 

rule 1{
CIRCLE [sat 1 h 270]
cord [y 1 r 60.1 s 0.98] 
 } 

rule 1{
CIRCLE [sat 1 h 270]
cord [y 1 r 60.1 s 0.98] 
 } 

rule 1{
CIRCLE [sat 1 h 270]
cord [y 1 r 60.1 s 0.98] 
 } 

rule 1{
CIRCLE [sat 1 h 270]
cord [y 1 r 60.1 s 0.98] 
 } 

rule 1{
CIRCLE [sat 1 h 270]
cord [y 1 r 60.1 s 0.98] 
 } 

rule 1{
CIRCLE [sat 1 h 270]
cord [y 1 r 60.1 s 0.98] 
 } 

rule 1{
CIRCLE [sat 1 h 270]
cord [y 1 r 60.1 s 0.98] 
 } 

rule 1{
CIRCLE [sat 1 h 270]
cord [y 1 r 60.1 s 0.98] 
 } 

rule 1{
CIRCLE [sat 1 h 270]
cord [y 1 r 60.1 s 0.98] 
 } 

rule 1{
CIRCLE [sat 1 h 270]
cord [y 1 r 60.1 s 0.98] 
 } 

rule 1{
CIRCLE [sat 1 h 270]
cord [y 1 r 60.1 s 0.98] 
 } 

rule 1{
CIRCLE [sat 1 h 270]
cord [y 1 r 60.1 s 0.98] 
 } 

rule 1{
CIRCLE [sat 1 h 270]
cord [y 1 r 60.1 s 0.98] 
 } 

rule 1{
CIRCLE [sat 1 h 270]
cord [y 1 r 60.1 s 0.98] 
 } 

rule 1{
CIRCLE [sat 1 h 270]
cord [y 1 r 60.1 s 0.98] 
 } 

rule 1{
CIRCLE [sat 1 h 270]
cord [y 1 r 60.1 s 0.98] 
 } 

shape cord
rule 1{
CIRCLE [sat 1 h 270]
cord [y 1 r 60.1 s 0.98] 
 } 

		